X: 1154
T:Hunters House (A66)
N: page A66
N: heptatonic
N: matches 1019
C:Ed Reavy
S:arr. Paddy O'Brien
R:reel
E:9
I:speed 350
M:C|
K:G
G/2A/2|"G"Bd~d2 "F#dim"cAFA|"G"~G2BG DGBG|\
"G"Bd~d2 "F#dim"cAFA|"G"GBAG "D"FDCE|"G"DGBG "F#dim"cAFA|
"G"(3BAG AF GABc|"D"defg agfd|"F#dim"cAFA "G"G2:|\
G/2A/2|"G"~B2 gB aBgB|~B2gf "Am"edcB|
~A2ad "D"bdad|dfaf gfed|1 "G"~B2gB aBgB|\
~B2 gf edcB|"Am"~c2 Ag fdBd|
cAFA "G"BG G2:|2 Bdgb "D"afgd|\
"G"Bdgf "Am"edcB|~c2 Ag fg (3agf|"G"gdBd "F#dim"cAFA||
